X:1
T:Trondheim, SM
T:Trondheim, SM
T:Arthur Seymour Sullivan, 1892
T:Public Domain Courtesy of the Cyber Hymnal™
C:Arthur Seymour Sullivan, 1892
Z:Public Domain
Z:Courtesy of the Cyber Hymnal™
%%score ( 1 2 ) ( 3 4 )
L:1/8
Q:1/4=112
M:4/4
K:E
V:1 treble 
V:2 treble 
V:3 bass 
V:4 bass 
V:1
 [EG]2 | [EG]2 [EG]2 [DB]2 [DB]2 | [Ee]6 [Ed]2 | [Ec]2 [Ec]2 [EB]2 [FA]2 | ([FA]4 [EG]2) [GB]2 | %5
 F2 B2 [EG]2 B2 | F2 B2 (G^A) [FB]2 | [Fe]2 [Fd]2 c3 z _c | [DB]6 [DB]2 | [EB]2 (GA) [EB]2 [Ec]2 | %10
 F6 [FB]2 | [EB]2 (GA) [EB]2 [Ec]2 | F6 [DB]2 | [Ee]2 [Ee]2 [Ed]2 [Ec]2 | %14
 [GB]2 ([GB][FA]) [EG]2 E2 | [Ec]2 [Ec]2 [DB]2 [B,D]2 | [B,E]8 |] %17
V:2
 x2 | x8 | x8 | x8 | x8 | F2 (ED) x FE x | F2 (ED) G2 x2 | x4 E2 E2 x | x8 | x2 E2 x4 | %10
 (E4 D2) x2 | x2 E2 x4 | (E4 D2) x2 | x8 | x6 E2 | x8 | x8 |] %17
V:3
 [E,B,]2 | [E,B,]2 [E,B,]2 [F,B,]2 [F,B,]2 | [G,B,]6 [G,,B,]2 | [A,,A,]2 [B,,A,]2 [C,G,]2 [D,F,]2 | %4
 [E,B,]6 [E,B,]2 | [D,B,]2 B,2 [E,B,]2 B,2 | [D,B,]2 B,2 [E,B,]2 B,2 | %7
 [C,^A,]2 [B,,B,]2 [F,B,]2 [F,,A,]2 x | [B,,A,]6 [A,B,]2 | [G,B,]2 B,2 [G,B,]2 (A,G,) | %10
 (A,3 G, F,2) [D,A,]2 | [E,G,]2 B,2 ED [^A,C]2 | B,6 [A,B,]2 | [G,B,]2 [G,B,]2 A,2 [C,A,]2 | %14
 [D,F,]2 [D,B,]2 [E,B,]2 [G,,B,]2 | [A,,A,]2 (A,G,) [B,,F,]2 [B,,A,]2 | [E,G,]8 |] %17
V:4
 x2 | x8 | x8 | x8 | x8 | x2 (C,B,,) x (D,C,) x | x2 (C,B,,) x (D,C,) x | x9 | x8 | %9
 x2 (E,F,) x A,,2 x | B,,6 x2 | x2 (E,F,) G,2 x2 | B,6 x2 | x4 A,2 x2 | x8 | x2 A,,2 x4 | x8 |] %17

